X: 7632
T: Coiscéim Na Sí
R: jig
M: 6/8
K: Eminor
|:E3 GAB|AGF B3|EBE Gz A|AGF AGF|
EBE GAB|AGF B2A|Beg edc|BGE E2z:|
|:e3 g3|edc B2z|eBe g3|aga bge|
(3bc'b a agg|gfe edc|Beg edc|BGE E2z:|

